src/assets/outline/Dropbox.svg

<?xml version="1.0" encoding="UTF-8"?>
<svg width="24" height="24" viewBox="0 0 24 24" xmlns="http://www.w3.org/2000/svg">
 <path d="m6.44 9.7501c-0.15 0-0.29001-0.04-0.42001-0.13l-4.44-3c-0.2-0.14-0.32999-0.36999-0.32999-0.60999 0-0.25 0.11-0.47999 0.31-0.61999l5.56-4c0.26-0.18 0.60001-0.19001 0.86001-0.01001l4.44 3c0.2 0.14 0.33 0.36998 0.33 0.60998 0 0.25-0.11 0.48-0.31 0.62l-5.56 4c-0.13 0.09-0.28 0.14001-0.44 0.14001zm-3.13-3.77 3.12 2.11 4.26-3.07-3.12-2.11-4.26 3.07z"/>
 <path d="m17.56 9.7502c-0.15 0-0.31-0.05001-0.44-0.14001l-5.56-4c-0.2-0.14-0.32-0.38-0.31-0.62 0-0.25 0.13-0.46998 0.33-0.60998l4.44-3c0.26-0.17 0.6-0.16999 0.86 0.01001l5.56 4c0.2 0.14 0.32 0.37999 0.31 0.61999 0 0.25-0.13 0.46999-0.33 0.60999l-4.44 3c-0.13 0.09-0.28 0.13-0.42 0.13zm-4.25-4.73 4.26 3.07 3.12-2.11-4.26-3.07-3.12 2.11z"/>
 <path d="m7.5601 17.75c-0.15 0-0.31-0.05-0.44-0.14l-5.56-4c-0.2-0.14-0.32-0.38-0.31-0.62 0-0.25 0.12999-0.47 0.32999-0.61l4.44-3c0.26-0.17 0.60002-0.16999 0.86002 0.01001l5.56 4c0.2 0.14 0.32 0.38 0.31 0.62 0 0.25-0.13 0.47-0.33 0.61l-4.44 3c-0.13 0.09-0.28001 0.13-0.42001 0.13zm-4.25-4.73 4.26 3.07 3.12-2.11-4.26-3.07-3.12 2.11z"/>
 <path d="m16.44 17.75c-0.15 0-0.29-0.04-0.42-0.13l-4.44-3c-0.2-0.14-0.33-0.37-0.33-0.61 0-0.25 0.11-0.48 0.31-0.62l5.56-4c0.25-0.18 0.6-0.19001 0.86-0.01001l4.44 3c0.2 0.14 0.33 0.37 0.33 0.61 0 0.25-0.11 0.48-0.31 0.62l-5.56 4c-0.13 0.09-0.28 0.14-0.44 0.14zm-3.13-3.77 3.12 2.11 4.26-3.07-3.12-2.11-4.26 3.07z"/>
 <path d="m12 22.65c-0.25 0-0.5-0.05-0.73-0.16l-6.58-3.04c-0.27-0.12-0.44-0.39-0.44-0.68v-3.27c0-0.41 0.34-0.75 0.75-0.75s0.75 0.34 0.75 0.75v2.79l6.15 2.84c0.07 0.03 0.14 0.03 0.21 0l6.15-2.84v-2.79c0-0.41 0.34-0.75 0.75-0.75s0.75 0.34 0.75 0.75v3.27c0 0.29-0.17 0.56-0.44 0.68l-6.58 3.04c-0.24 0.11-0.49 0.16-0.74 0.16z"/>
</svg>

<svg width="24" height="24" viewBox="0 0 24 24"  xmlns="http://www.w3.org/2000/svg">
<path d="M6.44 9.75009C6.29 9.75009 6.14999 9.71009 6.01999 9.62009L1.57999 6.62009C1.37999 6.48009 1.25 6.2501 1.25 6.0101C1.25 5.7601 1.36 5.53011 1.56 5.39011L7.12 1.39011C7.38 1.21011 7.72001 1.2001 7.98001 1.3801L12.42 4.3801C12.62 4.5201 12.75 4.75008 12.75 4.99008C12.75 5.24008 12.64 5.47008 12.44 5.61008L6.88 9.61008C6.75 9.70008 6.6 9.75009 6.44 9.75009ZM3.31 5.98011L6.42999 8.09009L10.69 5.02008L7.57001 2.9101L3.31 5.98011Z" />
<path d="M17.5601 9.75017C17.4101 9.75017 17.2501 9.70016 17.1201 9.61016L11.5601 5.61016C11.3601 5.47016 11.2401 5.23016 11.2501 4.99016C11.2501 4.74016 11.3801 4.52018 11.5801 4.38018L16.0201 1.38018C16.2801 1.21018 16.6201 1.21019 16.8801 1.39019L22.4401 5.39019C22.6401 5.53019 22.7601 5.77018 22.7501 6.01018C22.7501 6.26018 22.6201 6.48017 22.4201 6.62017L17.9801 9.62017C17.8501 9.71017 17.7001 9.75017 17.5601 9.75017ZM13.3101 5.02016L17.5701 8.09017L20.6901 5.98018L16.4301 2.91018L13.3101 5.02016Z" />
<path d="M7.56009 17.7502C7.41009 17.7502 7.25009 17.7002 7.12009 17.6102L1.56009 13.6102C1.36009 13.4702 1.24009 13.2302 1.25009 12.9902C1.25009 12.7402 1.38008 12.5202 1.58008 12.3802L6.02008 9.38018C6.28008 9.21018 6.6201 9.21019 6.8801 9.39019L12.4401 13.3902C12.6401 13.5302 12.7601 13.7702 12.7501 14.0102C12.7501 14.2602 12.6201 14.4802 12.4201 14.6202L7.9801 17.6202C7.8501 17.7102 7.70009 17.7502 7.56009 17.7502ZM3.31009 13.0202L7.5701 16.0902L10.6901 13.9802L6.43008 10.9102L3.31009 13.0202Z" />
<path d="M16.44 17.7501C16.29 17.7501 16.15 17.7101 16.02 17.6201L11.58 14.6201C11.38 14.4801 11.25 14.2501 11.25 14.0101C11.25 13.7601 11.36 13.5301 11.56 13.3901L17.12 9.39011C17.37 9.21011 17.72 9.2001 17.98 9.3801L22.42 12.3801C22.62 12.5201 22.75 12.7501 22.75 12.9901C22.75 13.2401 22.64 13.4701 22.44 13.6101L16.88 17.6101C16.75 17.7001 16.6 17.7501 16.44 17.7501ZM13.31 13.9801L16.43 16.0901L20.69 13.0201L17.57 10.9101L13.31 13.9801Z" />
<path d="M12 22.65C11.75 22.65 11.5 22.6 11.27 22.49L4.69 19.45C4.42 19.33 4.25 19.06 4.25 18.77V15.5C4.25 15.09 4.59 14.75 5 14.75C5.41 14.75 5.75 15.09 5.75 15.5V18.29L11.9 21.13C11.97 21.16 12.04 21.16 12.11 21.13L18.26 18.29V15.5C18.26 15.09 18.6 14.75 19.01 14.75C19.42 14.75 19.76 15.09 19.76 15.5V18.77C19.76 19.06 19.59 19.33 19.32 19.45L12.74 22.49C12.5 22.6 12.25 22.65 12 22.65Z" />
</svg>
